!!!!SEGMENT: pl-kk--kk-i-109--004_pekiel-bartlomiej--missa-paschalis-sanctus.krn
!!!cenid: 16xx:1116
!!!COM: Pękiel, Bartłomiej
!!!COM-rismid: pe30105642
!!!CDT: <1633-~1670
!!!CNT: Polish
!!!OPR: Missa Paschalis
!!!OTL: Sanctus
!!!OMV: 004
!!!PDT:
!!!AGN: Sacred; Mass
!!!SMS-siglum: PL-Kk
!!!SMS-shelfmark: Kk.I.109
!!!SMS-shelfwork: 001-004 M
!!!SMS-variant:
!!!SMS-altvar:
!!!NIFC-rismid: 1001145405
!!!URL-scan: http://repozytorium.nifc.pl/skany/pl-kk-nut--i-109
!!!ONB-nifc: UWAGA: części Mszy: 1. Kyrie, 2. Et in terra, 3. Patrem, 4. Sanctus, 5. Agnus Dei
!!!AIN: 1 alto 1 empty 1 organ 2 tenor
!!!key:
**kern	**fba	**text	**kern	**text	**kern	**text	**kern	**text	**kern	**text
*part5	*	*part5	*part4	*part4	*part3	*part3	*part2	*part2	*part1	*part1
*staff5	*	*staff5	*staff4	*staff4	*staff3	*staff3	*staff2	*staff2	*staff1	*staff1
*Iorgan	*	*	*Iempty	*	*Itenor	*	*Itenor	*	*Ialto	*
*I"[Organo]	*	*	*I"Baßo.	*	*I"Tenore 2o A 4.	*	*I"Tenor 1o A 4.	*	*I"Alto.	*
*I'org	*	*	*I'B	*	*I'T 2	*	*I'T 1	*	*I'A	*
*clefF4	*	*	*clefF4	*	*clefC4	*	*clefC4	*	*clefC3	*
*k[]	*	*	*k[]	*	*k[]	*	*k[]	*	*k[]	*
*a:	*	*	*a:	*	*a:	*	*a:	*	*a:	*
*M2/1	*	*	*M2/1	*	*M2/1	*	*M2/1	*	*M2/1	*
*met(C)	*	*	*met(C)	*	*met(C)	*	*met(C)	*	*met(C)	*
=1-	=1-	=1-	=1-	=1-	=1-	=1-	=1-	=1-	=1-	=1-
*	*	*	*	*	*all\right	*	*all\right	*	*	*
!LO:TX:b:t=Sanctus	!	!	!	!	!	!	!	!	!	!
!LO:TX:b:t=P:problem=tekst dopisany dla wygody grającego inną ręką?	!	!	!	!	!	!	!	!	!	!
1.A	.	.	1.A	SAn-	1.A	San-	1.c	San-	1.e	San-
.	.	.	.	.	.	.	.	.	.	.
*	*	*	*	*	*2\right	*	*2\right	*	*	*
!LO:TX:t=P:problem=kreska pseudotaktowa	!	!	!LO:TX:t=P:problem=kreska pseudotaktowa	!	!LO:TX:t=P:problem=kreska pseudotaktowa	!	!LO:TX:t=P:problem=kreska pseudotaktowa	!	!LO:TX:t=P:problem=kreska pseudotaktowa	!
2G#X\	.	.	2G#X\	.	2B\	-ctus	2B\	.	2e\	-ctus
=3-	=3-	=3-	=3-	=3-	=3-	=3-	=3-	=3-	=3-	=3-
*	*	*	*	*	*	*ij	*	*	*	*ij
2A\	.	.	2A\	.	1A	San-	2c\	.	2e\	San-
2F\	.	.	2F\	.	.	.	2d\	.	2d\	.
!LO:TX:t=P:problem=kreska pseudotaktowa	!	!	!LO:TX:t=P:problem=kreska pseudotaktowa	!	!LO:TX:t=P:problem=kreska pseudotaktowa	!	!LO:TX:t=P:problem=kreska pseudotaktowa	!	!LO:TX:t=P:problem=kreska pseudotaktowa	!
1E	.	San-	1E	-ctus	1G#X	-ctus	1B	-ctus	1e	-ctus
*	*	*	*	*	*	*Xij	*	*	*	*
=5-	=5-	=5-	=5-	=5-	=5-	=5-	=5-	=5-	=5-	=5-
2.E\	.	.	4r	.	4r	.	4r	.	4r	.
*	*	*	*	*ij	*	*	*	*ij	*	*
!	!	!	!	!	!LO:TX:b:t=P:problem=# below	!	!	!	!	!
.	.	.	2E\	SAn-	2G#X/	San-	2B\	San-	2e\	San-
!	!	!	!LO:TX:t=P:problem=kreska pseudotaktowa	!	!LO:TX:t=P:problem=kreska pseudotaktowa	!	!LO:TX:t=P:problem=kreska pseudotaktowa	!	!LO:TX:t=P:problem=kreska pseudotaktowa	!
4AA/	.	.	4AA/	.	4A/	-ctus	4c\	.	4e\	.
*	*	*	*	*	*	*ij	*	*	*	*
!LO:TX:t=P:problem=kreska pseudotaktowa	!	!	!	!	!	!	!	!	!	!
!LO:TX:a:t=P:global:problem=rozdzielacz słów	!	!	!	!	!	!	!	!	!	!
1GG,<	.	-ct(us)	2GG/	.	2B\	San-	2d\	.	2g\	.
*	*	*	*custos:E	*	*	*	*	*	*	*
!	!	!	!LO:TX:t=P:problem=kreska pseudotaktowa	!	!LO:TX:t=P:problem=kreska pseudotaktowa	!	!LO:TX:t=P:problem=kreska pseudotaktowa	!	!	!
!	!	!	!	!	!	!	!	!	!LO:TX:t=P:problem=kreska pseudotaktowa	!
.	.	.	2GG/	-ctus	2B\	-ctus	2d\	-ctus	2g\	-ctus
*	*	*	*	*	*	*	*	*Xij	*	*
!	!	!	!LO:LB:g=original	!	!	!	!	!	!	!
=7-	=7-	=7-	=7-	=7-	=7-	=7-	=7-	=7-	=7-	=7-
*	*	*ij	*	*	*	*	*	*	*	*
1EE	.	San-	4r	.	4r	.	4r	.	4r	.
.	.	.	2E\	SAn-	2B\	San-	2e\	san-	2g\	San-
!	!	!	!LO:TX:t=P:problem=kreska pseudotaktowa	!	!LO:TX:t=P:problem=kreska pseudotaktowa	!	!LO:TX:t=P:problem=kreska pseudotaktowa	!	!LO:TX:t=P:problem=kreska pseudotaktowa	!
.	.	.	4E\	.	4B\	.	4e\	.	4g\	.
*	*	*	*	*	*	*	*lig	*	*	*
!LO:TX:t=P:problem=kreska pseudotaktowa	!	!	!	!	!	!	!	!	!	!
1BB	.	.	1BB	.	2.B\	.	1d	.	2f#X\	.
!	!	!	!	!	!	!	!	!	!LO:TX:t=P:problem=kreska pseudotaktowa	!
.	.	.	.	.	.	.	.	.	2g\	-ctus
!	!	!	!	!	!LO:TX:t=P:problem=kreska pseudotaktowa	!	!	!	!	!
.	.	.	.	.	4A/	.	.	.	.	.
=9-	=9-	=9-	=9-	=9-	=9-	=9-	=9-	=9-	=9-	=9-
2C/	.	.	2C/	.	2Gny/	.	1c	.	2e\	San-
!	!	!	!LO:TX:t=P:problem=kreska pseudotaktowa	!	!LO:TX:t=P:problem=kreska pseudotaktowa	!	!	!	!	!
2AA/	.	.	2AA/	.	2A/	.	.	.	2f#X\	.
*	*	*	*	*	*	*	*Xlig	*	*	*
!	!	!	!	!	!LO:TX:t=P:problem=kreska pseudotaktowa	!	!LO:TX:t=P:problem=kreska pseudotaktowa	!	!LO:TX:t=P:problem=kreska pseudotaktowa	!
1GG	.	-ct(us)	1GG	-ctus	1B	-ctus	1d	-ctus	1g	-ctus
*	*	*Xij	*	*Xij	*	*Xij	*	*	*	*Xij
!LO:LB:g=original	!	!	!	!	!	!	!	!	!	!
=11-	=11-	=11-	=11-	=11-	=11-	=11-	=11-	=11-	=11-	=11-
!LO:TX:t=P:problem=kreska pseudotaktowa	!	!	!	!	!	!	!	!	!	!
1GG	.	D(omi)n(us)	4r	.	4r	.	4r	.	4r	.
.	.	.	4.GG/	Do-	4.B\	Do-	4.d\	Do-	4.g\	Do-
*	*	*	*	*	*custos:B	*	*	*	*	*
.	.	.	8GG/	-mi-	8B\	-mi-	8d\	-mi-	8g\	-mi-
*	*	*	*	*	*	*	*	*	*custos:g	*
!	!	!	!LO:TX:t=P:problem=kreska pseudotaktowa	!	!LO:PB:g=original	!	!LO:TX:t=P:problem=kreska pseudotaktowa	!	!LO:TX:t=P:problem=kreska pseudotaktowa	!
!	!	!	!	!	!LO:TX:t=P:problem=kreska pseudotaktowa	!	!	!	!	!
.	.	.	4GG/	-n(us)	4B\	-nus	4d\	-nus	4g\	-nus
!	!	!	!	!	!	!	!	!	!LO:LB:g=original	!
2C/	.	De-	2C/	De-	2c\	De-	2e\	De-	2.g\	De-
4GG/	.	-(us)	4GG/	-(us)	4B\	-us	(4d\	-us	.	.
*	*	*	*	*	*	*	*custos:B	*	*	*
!	!	!	!LO:TX:t=P:problem=kreska pseudotaktowa	!	!	!	!LO:TX:t=P:problem=kreska pseudotaktowa	!	!LO:TX:t=P:problem=kreska pseudotaktowa	!
4AA/	.	.	4AA/	.	2A/	sab-	4c\)	.	4e\	-(us)
!	!	!	!	!	!	!	!LO:PB:g=original	!	!	!
=13-	=13-	=13-	=13-	=13-	=13-	=13-	=13-	=13-	=13-	=13-
2E\	.	Sab[ba-	4.E\	Sab-	.	.	4.B\	Sab-	4.e\	Sab-
.	.	.	.	.	4G#X/	-ba-	.	.	.	.
.	.	.	8E\	-ba-	.	.	8B\	-ba-	8e\	-ba-
!LO:TX:a:t=P:problem=podwójna kreska taktowa	!	!	!LO:TX:t=P:problem=kreska pseudotaktowa	!	!LO:TX:t=P:problem=kreska pseudotaktowa	!	!LO:TX:t=P:problem=kreska pseudotaktowa	!	!LO:TX:t=P:problem=kreska pseudotaktowa	!
2AA;/	.	-oth]	2AA;/	-oth	2A/	-oth	2c#X;\	-oth	2e\	-oth
4r	.	.	4r	.	4r	.	4r	.	4r	.
4E\	#	Ple-	4E\	Ple-	4G#X/	Ple-	4B\	Ple-	4e\	Ple-
4E\	.	-ni	4E\	-ni	4G#/	-ni	4B\	-ni	4e\	-ni
!LO:TX:t=P:problem=kreska pseudotaktowa	!	!	!LO:TX:t=P:problem=kreska pseudotaktowa	!	!LO:TX:t=P:problem=kreska pseudotaktowa	!	!LO:TX:t=P:problem=kreska pseudotaktowa	!	!LO:TX:t=P:problem=kreska pseudotaktowa	!
4E\	.	.	4E\	ſunt	4G#/	sunt	4B\	sunt	4e\	ſunt
=15-	=15-	=15-	=15-	=15-	=15-	=15-	=15-	=15-	=15-	=15-
1A	.	caeli	2A\	cae-	2A/	cae-	2cny\	cae-	2e\	cae-
.	.	.	4A\	-li	4A/	-li	4c\	-li	4e\	-li
!	!	!	!	!	!LO:TX:t=P:problem=kreska pseudotaktowa	!	!LO:TX:t=P:problem=kreska pseudotaktowa	!	!LO:TX:t=P:problem=kreska pseudotaktowa	!
.	.	.	4A\	et	4A/	et	4c\	et	4e\	et
2Gny\	.	et	2Gny\	ter-	2B\	ter-	4d\	ter-	(2g\	ter-
.	.	.	.	.	.	.	8d\	-ra	.	.
.	.	.	.	.	.	.	8G/	et	.	.
!LO:TX:t=P:problem=kreska pseudotaktowa	!	!	!LO:TX:t=P:problem=kreska pseudotaktowa	!	!	!	!LO:TX:t=P:problem=kreska pseudotaktowa	!	!	!
2F\	.	ter-	2F\	.	2A\	.	2A/	ter-	2d\)	.
=17-	=17-	=17-	=17-	=17-	=17-	=17-	=17-	=17-	=17-	=17-
!	!	!	!	!	!LO:TX:t=P:problem=kreska pseudotaktowa	!	!	!	!LO:TX:t=P:problem=kreska pseudotaktowa	!
!	!	!	!	!	!LO:TX:b:t=P:problem=# below	!	!	!	!	!
1E,<	.	-ra	1E	-ra	1G#X	-ra	1B	-ra	1e	-ra
=18-	=18-	=18-	=18-	=18-	=18-	=18-	=18-	=18-	=18-	=18-
*M3/1	*	*	*M3/1	*	*M3/1	*	*M3/1	*	*M3/1	*
0.AA	.	glo-	1.A	glo-	1.A	glo-	1.c#X	Glo-	1.e	glo-
.	.	.	2A\	-ri-	2A/	-ri-	2c#\	-ri-	2e\	-ri-
*	*	*	*	*	*custos:A	*	*	*	*	*
!	!	!	!LO:TX:t=P:problem=kreska pseudotaktowa	!	!LO:TX:t=P:problem=kreska pseudotaktowa	!	!LO:TX:t=P:problem=kreska pseudotaktowa	!	!LO:TX:t=P:problem=kreska pseudotaktowa	!
.	.	.	1A	-a	1A	-a	1c#	-a	1e	-â
!	!	!	!	!	!LO:LB:g=original	!	!	!	!	!
=19-	=19-	=19-	=19-	=19-	=19-	=19-	=19-	=19-	=19-	=19-
*	*	*	*	*ij	*	*	*	*ij	*	*ij
0.D	.	-(ri)a	1.D	glo-	1.A	glo-	1.d	Glo-	1.f#X	glo-
.	.	.	2D/	-ri-	2A/	-ri-	2d\	-ri-	2f#\	-ri-
*	*	*	*	*	*	*	*custos:d	*	*	*
!	!	!	!LO:TX:t=P:problem=kreska pseudotaktowa	!	!LO:TX:t=P:problem=kreska pseudotaktowa	!	!LO:TX:t=P:problem=kreska pseudotaktowa	!	!LO:TX:t=P:problem=kreska pseudotaktowa	!
.	.	.	1D	-a	1A	-a	1d	-a	1f#	-â
*	*	*	*	*Xij	*	*	*	*Xij	*	*Xij
!	!	!	!	!	!	!	!LO:LB:g=original	!	!	!
=20-	=20-	=20-	=20-	=20-	=20-	=20-	=20-	=20-	=20-	=20-
0.GG;	.	tua	0GG	tu-	0B	tu-	0d	tu-	0g	tu-
*	*	*	*custos:GG	*	*	*	*	*	*custos:g	*
!	!	!	!	!	!	!	!	!	!LO:TX:t=P:problem=kreska pseudotaktowa	!
.	.	.	1GG;	-â	1B	-a	1d	-a	1g	-â
!	!	!	!LO:LB:g=original	!	!	!	!	!	!LO:LB:g=original	!
=21||	=21||	=21||	=21||	=21||	=21||	=21||	=21||	=21||	=21||	=21||
1rBB	.	.	1r	.	1r	.	1r	.	1r	.
1rBB	.	.	1r	.	1r	.	1r	.	1r	.
!LO:TX:t=P:problem=kreska pseudotaktowa	!	!	!LO:TX:t=P:problem=kreska pseudotaktowa	!	!LO:TX:t=P:problem=kreska pseudotaktowa	!	!LO:TX:t=P:problem=kreska pseudotaktowa	!	!LO:TX:t=P:problem=kreska pseudotaktowa	!
1GG	.	O-	1GG	O-	1B	O-	1d	O-	1g	O-
=22-	=22-	=22-	=22-	=22-	=22-	=22-	=22-	=22-	=22-	=22-
0GG	.	-san-	1.GG	-san-	1.B	-san-	1.d	-san-	1.g	-san-
.	.	.	2GG/	-na	2B\	-na	2d\	-na	2g\	-na
*	*	*	*	*ij	*	*	*	*ij	*	*
!LO:TX:t=P:problem=kreska pseudotaktowa	!	!	!LO:TX:t=P:problem=kreska pseudotaktowa	!	!LO:TX:t=P:problem=kreska pseudotaktowa	!	!LO:TX:t=P:problem=kreska pseudotaktowa	!	!LO:TX:t=P:problem=kreska pseudotaktowa	!
1C	.	-na	1C	O-	1c	o-	1e	O-	1g	O-
=23-	=23-	=23-	=23-	=23-	=23-	=23-	=23-	=23-	=23-	=23-
0GG	.	in	1.GG	-san-	1.B	-san-	1.d	-san-	1.g	-san-
.	.	.	2GG/	-na	2B\	-na	2d\	-na	2g\	-na
*	*	*	*	*Xij	*	*	*	*Xij	*	*
1AA	.	ex-	2.AA/	in	2.A/	in	2.c\	in	2.e\	in
!	!	!	!LO:TX:t=P:problem=kreska pseudotaktowa	!	!LO:TX:t=P:problem=kreska pseudotaktowa	!	!LO:TX:t=P:problem=kreska pseudotaktowa	!	!LO:TX:t=P:problem=kreska pseudotaktowa	!
.	.	.	4AA/	ex-	4A/	ex-	4c\	ex-	4e\	ex-
=24-	=24-	=24-	=24-	=24-	=24-	=24-	=24-	=24-	=24-	=24-
!LO:TX:t=P:problem=kreska pseudotaktowa	!	!	!	!	!	!	!	!	!	!
0.E,<	.	-celſis	0E	-cel-	1G#X	-cel-	1B	-cel-	1.e	-cel-
!	!	!	!	!	!LO:TX:a:t=P:global:problem=rozdzielacz słów	!	!LO:TX:a:t=P:global:problem=rozdzielacz słów	!	!	!
.	.	.	.	.	1G#,<	-sis	1B,<	-sis	.	.
.	.	.	.	.	.	.	.	.	2e\	-sis
!	!	!	!LO:TX:t=P:problem=kreska pseudotaktowa	!	!LO:TX:t=P:problem=kreska pseudotaktowa	!	!LO:TX:t=P:problem=kreska pseudotaktowa	!	!LO:TX:t=P:problem=kreska pseudotaktowa	!
.	.	.	1E	-sis	1G#	O-	1B	O-	1e	O-
=25-	=25-	=25-	=25-	=25-	=25-	=25-	=25-	=25-	=25-	=25-
0A	.	in	0A	in	0A	-San-	0c	-san-	0e	-San-
!LO:TX:t=P:problem=kreska pseudotaktowa	!	!	!	!	!LO:TX:t=P:problem=kreska pseudotaktowa	!	!	!	!LO:TX:t=P:problem=kreska pseudotaktowa	!
1A	.	ex-	1A	ex-	1A	-na	1c	-na	1f#X	-na
=26-	=26-	=26-	=26-	=26-	=26-	=26-	=26-	=26-	=26-	=26-
0G	.	-cel-	(0G	-cel-	0B	in	0d	in	0g	in
*	*	*	*	*	*custos:G	*	*	*	*	*
!LO:TX:t=P:problem=kreska pseudotaktowa	!	!	!	!	!	!	!LO:TX:t=P:problem=kreska pseudotaktowa	!	!	!
1F	.	.	1F	.	1B	ex-	1d	ex-	1d	ex-
!	!	!	!	!	!LO:LB:g=original	!	!	!	!	!
=27-	=27-	=27-	=27-	=27-	=27-	=27-	=27-	=27-	=27-	=27-
!LO:TX:t=P:problem=kreska pseudotaktowa	!	!	!	!	!LO:TX:b:t=P:problem=# below, pomiędzy nutami	!	!	!	!	!
0.E;	.	-ſis.	0E)	.	0G#X	-cel-	0B	-cel-	0e	-cel-
*custos:E	*	*	*	*	*	*	*	*	*	*
!	!	!	!LO:TX:t=P:problem=kreska pseudotaktowa	!	!	!	!	!	!	!
.	.	.	1E	-sis	1G#	-sis	1B	-sis	1e	-sis
!LO:LB:g=original	!	!	!	!	!	!	!	!	!	!
=28||-	=28||	=28||	=28||-	=28||	=28||	=28||	=28||	=28||	=28||	=28||
0.E	.	Bene-	1r	.	1rB	.	1re	.	1rg	.
.	.	.	1.E	Be-	1.B	Be-	1.e	Be-	1.g	Be-
*	*	*	*	*	*	*	*custos:d	*	*	*
!	!	!	!LO:TX:t=P:problem=kreska pseudotaktowa	!	!LO:TX:t=P:problem=kreska pseudotaktowa	!	!LO:TX:t=P:problem=kreska pseudotaktowa	!	!LO:TX:t=P:problem=kreska pseudotaktowa	!
.	.	.	2E\	-ne-	2B\	-ne-	2e\	-ne-	2g\	-ne-
!	!	!	!	!	!	!	!LO:LB:g=original	!	!	!
=29-	=29-	=29-	=29-	=29-	=29-	=29-	=29-	=29-	=29-	=29-
!LO:TX:t=P:problem=kreska pseudotaktowa	!	!	!	!	!	!	!	!	!	!
0.BB	.	-d[ictus]_q(ui)	1.BB	-dic-	1.B	-dic-	1.d#X	-di-	1.f#X	-dic-
.	.	.	2BB/	-t(us)	2B\	-tus	2d#\	-ctus	2f#\	-t(us)
*	*	*	*	*	*	*	*	*	*custos:g	*
!	!	!	!LO:TX:t=P:problem=kreska pseudotaktowa	!	!LO:TX:t=P:problem=kreska pseudotaktowa	!	!LO:TX:t=P:problem=kreska pseudotaktowa	!	!LO:TX:t=P:problem=kreska pseudotaktowa	!
.	.	.	1BB	qui	1B	qui	1d#	qui	1f#	qui
!	!	!	!	!	!	!	!	!	!LO:LB:g=original	!
=30-	=30-	=30-	=30-	=30-	=30-	=30-	=30-	=30-	=30-	=30-
!	!	!	!	!	!	!	!LO:TX:b:t=P:problem=w tt. 30-36 tekst przesunięty	!	!	!
0.E	.	ve-	1E	Ve-	1.B	Ve-	1.e	Ve-	1g#X	Ve-
.	.	.	1E	-nit	.	.	.	.	1g#	-nit
.	.	.	.	.	2B\	-nit	2e\	-nit	.	.
*	*	*	*	*ij	*	*	*	*	*	*
!	!	!	!LO:TX:t=P:problem=kreska pseudotaktowa	!	!LO:TX:t=P:problem=kreska pseudotaktowa	!	!LO:TX:t=P:problem=kreska pseudotaktowa	!	!LO:TX:t=P:problem=kreska pseudotaktowa	!
.	.	.	1E	qui	1B	in	1e	in	1g#	qui
=31-	=31-	=31-	=31-	=31-	=31-	=31-	=31-	=31-	=31-	=31-
!LO:TX:t=P:problem=kreska pseudotaktowa	!	!	!	!	!	!	!	!	!	!
0.AA	.	-nit	0AA	Ve-	0c#X	no-	0e	no-	0a	Ve-
!	!	!	!	!	!LO:TX:t=P:problem=kreska pseudotaktowa	!	!LO:TX:t=P:problem=kreska pseudotaktowa	!	!LO:TX:t=P:problem=kreska pseudotaktowa	!
.	.	.	1AA	-nit	1c#	-mi-	1e	-mi-	1a	-nit
*	*	*	*	*Xij	*	*	*	*	*	*
=32-	=32-	=32-	=32-	=32-	=32-	=32-	=32-	=32-	=32-	=32-
0.D	.	in_N(omi)-	1D	in	1A	-ne	1dny	-ne	1f#X	in
.	.	.	1.D	no-	1.A	Do-	1.d	Do-	1.f#	no-
!	!	!	!LO:TX:t=P:problem=kreska pseudotaktowa	!	!LO:TX:t=P:problem=kreska pseudotaktowa	!	!LO:TX:t=P:problem=kreska pseudotaktowa	!	!LO:TX:t=P:problem=kreska pseudotaktowa	!
.	.	.	2D/	-mi-	2A\	-mi-	2d\	-mi-	2f#\	-mi-
=33-	=33-	=33-	=33-	=33-	=33-	=33-	=33-	=33-	=33-	=33-
!LO:TX:t=P:problem=kreska pseudotaktowa	!	!	!	!	!	!	!	!	!LO:TX:a:t=P:global:problem=rozdzielacz słów	!
0.GG	.	-ne	0GG	-ne	0B,<	-ni	0d	-ni	0gny,<	-ne
*	*	*	*custos:C	*	*	*	*	*	*	*
!	!	!	!	!	!LO:TX:t=P:problem=kreska pseudotaktowa	!	!LO:TX:t=P:problem=kreska pseudotaktowa	!	!LO:TX:t=P:problem=kreska pseudotaktowa	!
.	.	.	1GG	in	1B	In	1d	in	1g	in
!	!	!	!LO:LB:g=original	!	!	!	!	!	!	!
=34-	=34-	=34-	=34-	=34-	=34-	=34-	=34-	=34-	=34-	=34-
*	*	*	*	*	*custos:B	*	*	*	*	*
0C	.	Do-	0C	no-	0cny	no-	0e	no-	0g	no-
!LO:TX:t=P:problem=kreska pseudotaktowa	!	!	!LO:TX:t=P:problem=kreska pseudotaktowa	!	!LO:LB:g=original	!	!	!	!	!
!	!	!	!	!	!LO:TX:t=P:problem=kreska pseudotaktowa	!	!LO:TX:t=P:problem=kreska pseudotaktowa	!	!LO:TX:t=P:problem=kreska pseudotaktowa	!
1GG	.	.	1GG	-mi-	1B	-mi-	1d	-mi-	1g	-mi-
=35-	=35-	=35-	=35-	=35-	=35-	=35-	=35-	=35-	=35-	=35-
1AA	.	.	1AA	-ne	1A	-ne	1c	-ne	1e,<	-ne
0E	.	-mi-	1.E	Do-	1.A	Do-	1.B	Do-	1.e	Do-
!	!	!	!	!	!LO:TX:t=P:problem=kreska pseudotaktowa	!	!LO:TX:t=P:problem=kreska pseudotaktowa	!	!LO:TX:t=P:problem=kreska pseudotaktowa	!
!	!	!	!	!	!LO:TX:b:t=P:problem=# below	!	!	!	!	!
.	.	.	2E\	-mi-	2G#X/	-mi-	2B\	-mi-	2e\	-mi-
=36-	=36-	=36-	=36-	=36-	=36-	=36-	=36-	=36-	=36-	=36-
!LO:TX:t=P:problem=kreska pseudotaktowa	!	!	!LO:TX:a:t=P:problem=rozdzielacz słów	!	!	!	!LO:N:acc=-	!	!	!
0AA;,<	.	-ni.	0AA;,<	-ni	0A	-ni	0cn	-ni	0e;,<	-ni
!LO:TX:t=P:problem=kreska pseudotaktowa	!	!	!LO:TX:t=P:problem=kreska pseudotaktowa	!	!LO:TX:t=P:problem=kreska pseudotaktowa	!	!LO:TX:t=P:problem=kreska pseudotaktowa	!	!LO:TX:t=P:problem=kreska pseudotaktowa	!
1AA	.	O-	1AA	O-	1A	O-	1c	o-	1e	O-
=37-	=37-	=37-	=37-	=37-	=37-	=37-	=37-	=37-	=37-	=37-
!LO:TX:t=P:problem=kreska pseudotaktowa	!	!	!	!	!	!	!	!	!	!
0.E	.	-san-	1.E	-san-	1.G#X	-san-	1.B	-ſan-	1.e	-san-
*	*	*	*	*	*	*	*custos:B	*	*	*
.	.	.	2E\	-na	2G#/	-na	2B\	-na	2e\	-na
*	*	*	*	*ij	*	*ij	*	*	*	*ij
!	!	!	!LO:TX:t=P:problem=kreska pseudotaktowa	!	!LO:TX:t=P:problem=kreska pseudotaktowa	!	!LO:LB:g=original	!	!	!
!	!	!	!	!	!	!	!LO:TX:t=P:problem=kreska pseudotaktowa	!	!LO:TX:t=P:problem=kreska pseudotaktowa	!
.	.	.	1E	O-	1G#	O-	1B	O-	1e	O-
=38-	=38-	=38-	=38-	=38-	=38-	=38-	=38-	=38-	=38-	=38-
0.A	.	-na	0A	-san-	0A	-san-	0c	-ſan-	0e	-san-
*	*	*	*	*	*	*	*	*	*custos:g	*
!	!	!	!	!	!LO:TX:t=P:problem=kreska pseudotaktowa	!	!LO:TX:t=P:problem=kreska pseudotaktowa	!	!LO:TX:t=P:problem=kreska pseudotaktowa	!
.	.	.	1A	-na	1A	-na	1c	-na	1e	-na
*	*	*	*	*Xij	*	*Xij	*	*	*	*Xij
!	!	!	!	!	!	!	!	!	!LO:LB:g=original	!
=39-	=39-	=39-	=39-	=39-	=39-	=39-	=39-	=39-	=39-	=39-
0.G	.	in	0G	in	0B	in	0d	in	0g	in
!	!	!	!LO:TX:t=P:problem=kreska pseudotaktowa	!	!LO:TX:t=P:problem=kreska pseudotaktowa	!	!LO:TX:t=P:problem=kreska pseudotaktowa	!	!LO:TX:t=P:problem=kreska pseudotaktowa	!
.	.	.	1G	ex-	1B	ex-	1d	ex-	1g	ex-
=40-	=40-	=40-	=40-	=40-	=40-	=40-	=40-	=40-	=40-	=40-
0.C	.	exc[elsis]	1.C	-cel-	1.c	-cel-	1.e	-cel-	1.g	-cel-
.	.	.	2C/	-sis	2c\	-sis	2e\	-sis	2g\	-sis
!	!	!	!LO:TX:t=P:problem=kreska pseudotaktowa	!	!LO:TX:t=P:problem=kreska pseudotaktowa	!	!LO:TX:t=P:problem=kreska pseudotaktowa	!	!LO:TX:t=P:problem=kreska pseudotaktowa	!
.	.	.	1C	O-	1c	O-	1e	O-	1g	O-
=41-	=41-	=41-	=41-	=41-	=41-	=41-	=41-	=41-	=41-	=41-
!LO:TX:t=P:problem=kreska pseudotaktowa	!	!	!	!	!	!	!	!	!	!
0.C	.	Oſanna	0C	-san-	0c	-san-	0e	-san-	0g	-san-
!	!	!	!	!	!	!	!LO:TX:t=P:problem=kreska pseudotaktowa	!	!	!
.	.	.	1C	-na	1c	-na	1e	-na	1g	-na
=42-	=42-	=42-	=42-	=42-	=42-	=42-	=42-	=42-	=42-	=42-
!	!	!	!	!	!	!	!	!	!LO:TX:t=P:problem=kreska pseudotaktowa	!
2C/	.	in	2C/	in	0c	in	0e	in	0.g	in
2D/	.	.	2D/	.	.	.	.	.	.	.
2E\	.	.	2E\	.	.	.	.	.	.	.
2F\	.	ex-	2F\	.	.	.	.	.	.	.
!LO:TX:t=P:problem=kreska pseudotaktowa	!	!	!LO:TX:t=P:problem=kreska pseudotaktowa	!	!LO:TX:t=P:problem=kreska pseudotaktowa	!	!LO:TX:t=P:problem=kreska pseudotaktowa	!	!	!
1G	.	.	1G	.	1B	ex-	1d	ex-	.	.
=43-	=43-	=43-	=43-	=43-	=43-	=43-	=43-	=43-	=43-	=43-
*	*	*	*	*	*custos:G	*	*	*	*	*
1A	.	-cel-	1A	ex-	0A	.	1c	-cel-	1e	ex-
0E	.	.	0E	-cel-	.	.	0B	.	0e	-cel-
!	!	!	!	!	!LO:LB:g=original	!	!	!	!	!
!	!	!	!	!	!LO:TX:t=P:problem=kreska pseudotaktowa	!	!	!	!	!
.	.	.	.	.	1G#X	-cel-	.	.	.	.
!LO:LB:g=original	!	!	!	!	!	!	!	!	!	!
=44-	=44-	=44-	=44-	=44-	=44-	=44-	=44-	=44-	=44-	=44-
*M2/1	*	*	*M2/1	*	*M2/1	*	*M2/1	*	*M2/1	*
*met(C)	*	*	*met(C)	*	*met(C)	*	*met(C)	*	*met(C)	*
!	!	!	!	!	!	!	!LO:TX:t=P:problem=kreska pseudotaktowa	!	!LO:TX:t=P:problem=kreska pseudotaktowa	!
!	!	!	!	!	!	!	!LO:TX:t=P:problem=# above	!	!	!
2AA,</	.	-sis	2AA/	-sis	[0Al;;	-sis	1c#X	-sis	1e	-sis
4A\	.	in	4A\	in	.	.	.	.	.	.
!	!	!	!LO:TX:t=P:problem=kreska pseudotaktowa	!	!	!	!	!	!	!
4G\	.	.	4G\	.	.	.	.	.	.	.
*	*	*	*	*	*	*	*	*ij	*	*
2F\	.	ex-	2F\	ex-	.	.	4.d\	in	4fny\	in
.	.	.	.	.	.	.	.	.	4g\	.
.	.	.	.	.	.	.	8d\	ex-	.	.
!	!	!	!LO:TX:t=P:problem=kreska pseudotaktowa	!	!	!	!	!	!	!
2C#X/	.	-cel-	2C#X/	.	.	.	2.e\	-cel-	4a\	ex-
!	!	!	!	!	!	!	!	!	!LO:TX:t=P:problem=kreska pseudotaktowa	!
.	.	.	.	.	.	.	.	.	4g\	.
=46-	=46-	=46-	=46-	=46-	=46-	=46-	=46-	=46-	=46-	=46-
1D	.	.	1D	-cel-	0.A]	.	.	.	1f	-cel-
.	.	.	.	.	.	.	8d\L	.	.	.
.	.	.	.	.	.	.	8cny\J	.	.	.
.	.	.	.	.	.	.	2d\	.	.	.
0AAl;	.	-sis	0AAl;	-sis	.	.	0c#Xl	-sis	0el;<	-sis
*	*	*	*	*	*	*	*	*Xij	*	*
==	==	==	==	==	==	==	==	==	==	==
*-	*-	*-	*-	*-	*-	*-	*-	*-	*-	*-
!!!system-decoration: [s1,s2,s3,s4]s5
!!!RDF**kern: < = below
!!!RDF**kern: l = terminal long
!!!ENC: Marta Lawrence
!!!END: 2021-04-07
!!!ENC: Kamil Watkowski
!!!END: 2021-03-18
